img/gallery-item-page.svg

<svg xmlns="http://www.w3.org/2000/svg" width="48" height="46"><path fill-rule="evenodd" fill="#828C8E" d="M43.5 45.5h-39c-2.481 0-4.5-2.018-4.5-4.499V5C0 2.518 2.019.5 4.5.5H36c.795 0 1.559.316 2.121.878l9 9.001c.563.562.879 1.325.879 2.121v28.501c0 2.481-2.018 4.499-4.5 4.499zM36 3.5v6h-.001c0 1.654 1.346 3 3 3H45l-9-9zM45 14H38.999c-2.486 0-4.5-2.014-4.5-4.5h.001v-6h-30C3.671 3.5 3 4.171 3 5v36.001c0 .829.671 1.499 1.5 1.499h39c.829 0 1.5-.67 1.5-1.499V14zm-3.75 24H6.75c-.414 0-.75-.336-.75-.75 0-.416.336-.749.75-.749h34.5c.415 0 .75.333.75.749 0 .414-.335.75-.75.75zm0-4.499H6.75c-.414 0-.75-.337-.75-.751 0-.416.336-.75.75-.75h34.5c.415 0 .75.334.75.75 0 .414-.335.751-.75.751zm0-4.5H6.75c-.414 0-.75-.337-.75-.75 0-.416.336-.751.75-.751h34.5c.415 0 .75.335.75.751 0 .413-.335.75-.75.75zm0-4.501H6.75c-.414 0-.75-.336-.75-.75 0-.415.336-.75.75-.75h34.5c.415 0 .75.335.75.75 0 .414-.335.75-.75.75zm0-4.5h-18c-.415 0-.75-.336-.75-.75 0-.415.335-.75.75-.75h18c.415 0 .75.335.75.75 0 .414-.335.75-.75.75zm-10.5-4.5h-7.5c-.415 0-.75-.336-.75-.75 0-.415.335-.75.75-.75h7.5c.415 0 .75.335.75.75 0 .414-.335.75-.75.75zm0-4.5h-7.5c-.415 0-.75-.335-.75-.75s.335-.75.75-.75h7.5c.415 0 .75.335.75.75s-.335.75-.75.75zM18 20H7.5c-.829 0-1.5-.671-1.5-1.5v-9C6 8.671 6.671 8 7.5 8H18c.829 0 1.5.671 1.5 1.5v9c0 .829-.671 1.5-1.5 1.5zm-1.5-9H9v6h7.5v-6z"/></svg>

﻿<svg 
 xmlns="http://www.w3.org/2000/svg"
 xmlns:xlink="http://www.w3.org/1999/xlink"
 width="48px" height="46px">
<path fill-rule="evenodd"  fill="rgb(130, 140, 142)"
 d="M43.500,45.500 L4.500,45.500 C2.019,45.500 0.000,43.482 0.000,41.001 L0.000,5.000 C0.000,2.518 2.019,0.500 4.500,0.500 L36.000,0.500 C36.795,0.500 37.559,0.816 38.121,1.378 L47.121,10.379 C47.684,10.941 48.000,11.704 48.000,12.500 L48.000,41.001 C48.000,43.482 45.982,45.500 43.500,45.500 ZM36.000,3.500 L36.000,9.500 L35.999,9.500 C35.999,11.154 37.345,12.500 38.999,12.500 L40.498,12.500 L45.000,12.500 L36.000,3.500 ZM45.000,14.000 L40.498,14.000 L38.999,14.000 C36.513,14.000 34.499,11.986 34.499,9.500 L34.500,9.500 L34.500,3.500 L4.500,3.500 C3.671,3.500 3.000,4.171 3.000,5.000 L3.000,41.001 C3.000,41.830 3.671,42.500 4.500,42.500 L43.500,42.500 C44.329,42.500 45.000,41.830 45.000,41.001 L45.000,14.000 ZM41.250,38.000 L6.750,38.000 C6.336,38.000 6.000,37.664 6.000,37.250 C6.000,36.834 6.336,36.501 6.750,36.501 L41.250,36.501 C41.665,36.501 42.000,36.834 42.000,37.250 C42.000,37.664 41.665,38.000 41.250,38.000 ZM41.250,33.501 L6.750,33.501 C6.336,33.501 6.000,33.164 6.000,32.750 C6.000,32.334 6.336,32.000 6.750,32.000 L41.250,32.000 C41.665,32.000 42.000,32.334 42.000,32.750 C42.000,33.164 41.665,33.501 41.250,33.501 ZM41.250,29.001 L6.750,29.001 C6.336,29.001 6.000,28.664 6.000,28.251 C6.000,27.835 6.336,27.500 6.750,27.500 L41.250,27.500 C41.665,27.500 42.000,27.835 42.000,28.251 C42.000,28.664 41.665,29.001 41.250,29.001 ZM41.250,24.500 L6.750,24.500 C6.336,24.500 6.000,24.164 6.000,23.750 C6.000,23.335 6.336,23.000 6.750,23.000 L41.250,23.000 C41.665,23.000 42.000,23.335 42.000,23.750 C42.000,24.164 41.665,24.500 41.250,24.500 ZM41.250,20.000 L23.250,20.000 C22.835,20.000 22.500,19.664 22.500,19.250 C22.500,18.835 22.835,18.500 23.250,18.500 L41.250,18.500 C41.665,18.500 42.000,18.835 42.000,19.250 C42.000,19.664 41.665,20.000 41.250,20.000 ZM30.750,15.500 L23.250,15.500 C22.835,15.500 22.500,15.164 22.500,14.750 C22.500,14.335 22.835,14.000 23.250,14.000 L30.750,14.000 C31.165,14.000 31.500,14.335 31.500,14.750 C31.500,15.164 31.165,15.500 30.750,15.500 ZM30.750,11.000 L23.250,11.000 C22.835,11.000 22.500,10.665 22.500,10.250 C22.500,9.835 22.835,9.500 23.250,9.500 L30.750,9.500 C31.165,9.500 31.500,9.835 31.500,10.250 C31.500,10.665 31.165,11.000 30.750,11.000 ZM18.000,20.000 L7.500,20.000 C6.671,20.000 6.000,19.329 6.000,18.500 L6.000,9.500 C6.000,8.671 6.671,8.000 7.500,8.000 L18.000,8.000 C18.829,8.000 19.500,8.671 19.500,9.500 L19.500,18.500 C19.500,19.329 18.829,20.000 18.000,20.000 ZM16.500,11.000 L9.000,11.000 L9.000,17.000 L16.500,17.000 L16.500,11.000 Z"/>
</svg>
